static/images/logos/trusted-by/ey.svg

<svg xmlns="http://www.w3.org/2000/svg" width="46" height="48" viewBox="0 0 46 48" fill="none">
    <path d="M45.3201 0L0.820312 17.0054L45.3201 8.8111V0Z" fill="#ADADB0"/>
    <path d="M30.6299 23.793L26.8926 31.2824L23.0683 23.793H15.5938L23.5029 37.6264V46.6139H30.1953V37.6264L38.0177 23.793H30.6299Z" fill="#ADADB0"/>
    <path d="M7.51269 37.6264H15.5957V32.8684H7.51269V29.0797H16.4648L13.5097 23.793H0.820312V46.6139H18.7246V41.4151H7.51269V37.6264Z" fill="#ADADB0"/>
</svg>

<svg xmlns="http://www.w3.org/2000/svg" width="46" height="48" fill="none"><path fill="#ADADB0" d="M45.32 0 .82 17.005l44.5-8.194V0ZM30.63 23.793l-3.737 7.49-3.825-7.49h-7.474l7.909 13.833v8.988h6.692v-8.988l7.823-13.833H30.63ZM7.513 37.626h8.083v-4.758H7.513V29.08h8.952l-2.955-5.287H.82v22.82h17.905v-5.198H7.513v-3.789Z"/></svg>
